dist/svg/identity.svg

<!-- Generated by Trend Micro Style Portal -->
<svg version="1.1" xmlns="http://www.w3.org/2000/svg" width="16" height="16" viewBox="0 0 16 16">
  <title>identity</title>
  <path fill="rgb(34,34,34)" d="M13.585 3.975c-0.457-1.717-1.993-2.964-3.822-2.975h-0.001c-0.006-0-0.014-0-0.022-0-1.45 0-2.716 0.791-3.389 1.964l-0.010 0.019h-0.805c-1.697 0.026-3.103 1.245-3.417 2.853l-0.004 0.022c-1.197 0.145-2.115 1.155-2.115 2.379 0 0.035 0.001 0.070 0.002 0.105l-0-0.005c0.041 1.224 0.869 2.245 1.993 2.573l0.020 0.005c-0.503 0.595-1.409 1.785-0.905 2.975 0.355 0.665 1.044 1.109 1.836 1.109 0.098 0 0.193-0.007 0.287-0.020l-0.011 0.001h5.534c1.409 0 1.912-0.595 2.113-1.091 0.503-1.091-0.302-2.281-0.906-2.876h2.415c0.022 0.001 0.048 0.001 0.074 0.001 1.959 0 3.548-1.588 3.548-3.548 0-1.591-1.047-2.938-2.49-3.388l-0.025-0.007zM8.857 13.891h-5.534c-2.314 0-0.905-1.983-0.201-2.677 0.113-0.12 0.246-0.22 0.394-0.294l0.008-0.004c0.488-0.377 1.056-0.681 1.671-0.881l0.040-0.011v-0.297c-0.659-0.299-1.108-0.951-1.108-1.708 0-0.027 0.001-0.054 0.002-0.081l-0 0.004c0.116-1.055 0.954-1.883 2.003-1.983l0.009-0.001c0.003-0 0.006-0 0.009-0 1.099 0 1.992 0.885 2.004 1.982l0 0.001c0.005 0.050 0.008 0.108 0.008 0.167 0 0.735-0.457 1.362-1.103 1.614l-0.012 0.004v0.297c0.827 0.226 1.538 0.639 2.115 1.192l-0.002-0.002c0.704 0.694 2.012 2.677-0.201 2.677z"></path>
</svg>

<svg width="16" height="16" viewBox="0 0 16 16" fill="rgb(34, 34, 34)" xmlns="http://www.w3.org/2000/svg"><title>identity</title><path d="M13.585 3.975C13.128 2.258 11.592 1.011 9.763 1C9.757 1 9.748 1 9.74 1C8.29 1 7.024 1.791 6.351 2.964L6.341 2.983H5.536C3.839 3.009 2.433 4.228 2.119 5.836L2.115 5.858C0.918 6.003 0 7.013 0 8.237C0 8.272 0.001 8.307 0.002 8.342V8.337C0.043 9.561 0.871 10.582 1.995 10.91L2.015 10.915C1.512 11.51 0.606 12.7 1.11 13.89C1.465 14.555 2.154 14.999 2.946 14.999C3.044 14.999 3.139 14.992 3.233 14.979L3.222 14.98H8.756C10.165 14.98 10.668 14.385 10.869 13.889C11.372 12.798 10.567 11.608 9.963 11.013H12.378C12.4 11.014 12.426 11.014 12.452 11.014C14.411 11.014 16 9.426 16 7.466C16 5.875 14.953 4.528 13.51 4.078L13.485 4.071L13.585 3.975ZM8.857 13.891H3.323C1.009 13.891 2.418 11.908 3.122 11.214C3.235 11.094 3.368 10.994 3.516 10.92L3.524 10.916C4.012 10.539 4.58 10.235 5.195 10.035L5.235 10.024V9.727C4.576 9.428 4.127 8.776 4.127 8.019C4.127 7.992 4.128 7.965 4.129 7.938V7.942C4.245 6.887 5.083 6.059 6.132 5.959L6.141 5.958C6.144 5.958 6.147 5.958 6.15 5.958C7.249 5.958 8.142 6.843 8.154 7.94C8.159 7.99 8.162 8.049 8.162 8.108C8.162 8.843 7.705 9.47 7.059 9.722L7.047 9.726V10.023C7.874 10.249 8.585 10.662 9.162 11.215L9.16 11.213C9.864 11.907 11.172 13.89 8.959 13.89L8.857 13.891Z" fill="rgb(34, 34, 34)" fill-opacity="1.00"/></svg>
